X:1
T:Title
%%score { ( 1 3 ) | ( 2 4 ) }
L:1/8
M:4/4
K:Bb
V:1 treble nm="Grand Piano"
V:3 treble 
V:2 bass 
V:4 bass 
V:1
 z4 z2 z[Q:1/4=100] [DB] | z4 .B2 z2 | [DF][Fd][Ec][DB] A3 A | A2 AA AGFF | z edc [DB]3 [DB] | %5
 A2 AA Accc | [DB]2 [DB]>[Ec] [Fd]3 [Fd] | edcB BAAB |[M:7/8] c2 c>d [DB]3 |[M:1/8] [DF] | %10
[M:4/4] [DB]2 [Fd]>[Ec] [DB] [DF]2 [DF] | [DB]2 [Fd]>[Ec] [DB]3 [DB] | A2 A>B c2 dc | %13
 [DB]2 [DB]>[Ec] [Fd]3 [DF] | [DB]2 [Fd]>[Ec] [DB] [DF]2 [DF] | [DB]2 [Fd]>[Ec] [DB]3 [DB] | %16
 A2 A>B c2 d>c |[M:7/8] B d2 c [DB]3 |] %18
V:2
 z4 z2 z [B,,F,] | [B,,F,]2 [B,,F,][B,,F,] .[B,,F,]2 [B,,B,][B,,B,] | %2
 [B,,B,]2 [B,,F,][B,,F,] [F,C]3 [F,C] | [F,C]2 [F,C][F,C] z B,[F,A,C][F,A,C] | .A,2 z2 z4 | %5
 [F,C]2 [F,C][F,C] C[A,E][F,A,E][F,A,E] | [B,,B,]2 [B,,F,]>[B,,F,] [B,,B,]3 [B,,B,] | %7
 [C,A,][D,B,][E,G,E][=E,G,D] DC[F,C][F,D] |[M:7/8] [F,A,E]2 [F,A,E]>[F,A,F] [B,,B,]3 | %9
[M:1/8] [B,,B,] |[M:4/4] [B,,F,]2 [B,,F,]>[B,,F,] [B,,F,] [B,,B,]2 [B,,B,] | %11
 [B,,F,]2 [B,,F,]>[B,,F,] [B,,F,]3 [B,,F,] | [F,C]2 [F,C]>[F,D] [F,A,E]2 [F,A,F][F,A,E] | %13
 [B,,B,]2 [B,,F,]>[B,,F,] [B,,B,]3 [B,,B,] | [B,,F,]2 [B,,F,]>[B,,F,] [B,,F,] [B,,B,]2 [B,,B,] | %15
 [B,,F,]2 [B,,F,]>[B,,F,] [B,,F,]3 [B,,F,] | [F,C]2 [F,C]>[F,D] [F,A,E]2 [F,A,F]>[F,A,E] | %17
[M:7/8] [F,B,D] [F,B,F]2 [F,A,E] [B,,B,]3 |] %18
V:3
 x8 | [DB]2 [DB][DB] D-[B,DF][DF][DF] | x8 | x8 | F2 z2 z4 | x8 | x8 | F2 z2 z4 |[M:7/8] x7 | %9
[M:1/8] x |[M:4/4] x8 | x8 | x8 | x8 | x8 | x8 | x8 |[M:7/8] x7 |] %18
V:4
 x8 | x8 | x8 | z4 [F,C]2 z2 | F,-[F,C][F,B,F][F,A,E] [B,,B,]3 [B,,F,] | z4 F,2 z2 | x8 | %7
 z4 F,2 z2 |[M:7/8] x7 |[M:1/8] x |[M:4/4] x8 | x8 | x8 | x8 | x8 | x8 | x8 |[M:7/8] x7 |] %18

